static/assets/images/exchanges/lynex.svg

<svg width="277" height="256" viewBox="0 0 277 256" fill="none" xmlns="http://www.w3.org/2000/svg">
<path d="M120.545 82.1704L55.3965 125.31C53.4792 126.586 53.4792 129.415 55.3965 130.69L121.135 174.218C122.785 175.309 124.139 176.795 125.075 178.541C126.012 180.287 126.501 182.239 126.499 184.221V252.582C126.499 255.338 123.402 256.965 121.153 255.374L4.793 173.94C3.31474 172.905 2.1072 171.528 1.27281 169.925C0.438429 168.322 0.00181246 166.541 0 164.732L0 91.2677C0 87.5882 1.78818 84.1487 4.793 82.0595L121.135 0.625555C123.383 -0.94613 126.481 0.662697 126.481 3.41754V71.0758C126.483 73.2753 125.94 75.4409 124.901 77.3776C123.861 79.3143 122.358 80.9613 120.526 82.1704H120.545ZM277 91.2677V164.732C277 168.412 275.212 171.851 272.207 173.94L155.847 255.374C153.598 256.946 150.501 255.337 150.501 252.582V184.221C150.499 182.239 150.989 180.287 151.925 178.541C152.861 176.795 154.216 175.309 155.866 174.218L221.604 130.69C223.521 129.415 223.521 126.586 221.604 125.31L156.455 82.1704C154.625 80.9596 153.123 79.3122 152.084 77.3758C151.045 75.4395 150.501 73.2748 150.501 71.0758V3.41754C150.501 0.662697 153.598 -0.964701 155.847 0.625555L272.207 82.0595C273.685 83.0946 274.893 84.472 275.727 86.0751C276.562 87.6781 276.998 89.4594 277 91.2677Z" fill="#FAF0F0"/>
</svg>

<svg xmlns="http://www.w3.org/2000/svg" fill="none" viewBox="0 0 277 256"><path fill="#FAF0F0" d="m120.545 82.17-65.148 43.14c-1.918 1.276-1.918 4.105 0 5.38l65.738 43.528a11.99 11.99 0 0 1 5.364 10.003v68.361c0 2.756-3.097 4.383-5.346 2.792L4.793 173.94a11.2 11.2 0 0 1-3.52-4.015A11.3 11.3 0 0 1 0 164.732V91.268a11.2 11.2 0 0 1 4.793-9.208L121.135.626c2.248-1.572 5.346.037 5.346 2.792v67.658c.002 2.2-.541 4.365-1.58 6.302a13.25 13.25 0 0 1-4.375 4.792zM277 91.268v73.464c0 3.68-1.788 7.119-4.793 9.208l-116.36 81.434c-2.249 1.572-5.346-.037-5.346-2.792v-68.361a12 12 0 0 1 1.424-5.68 11.95 11.95 0 0 1 3.941-4.323l65.738-43.528c1.917-1.275 1.917-4.104 0-5.38l-65.149-43.14a13.3 13.3 0 0 1-4.371-4.794 13.3 13.3 0 0 1-1.583-6.3V3.418c0-2.755 3.097-4.383 5.346-2.792l116.36 81.434a11.2 11.2 0 0 1 3.52 4.015A11.3 11.3 0 0 1 277 91.268"/></svg>
